X:1
T:Title
%%score [ 1 2 3 4 ]
L:1/8
Q:1/4=120
M:2/2
K:C
V:1 treble nm="S"
V:2 treble nm="A"
V:3 treble-8 nm="T"
V:4 bass nm="B"
V:1
 A4 A2 A2 | A6 c2 | B3 A G2 F2 | G8 | G4 F2 E2 | D6 E2 | F2 A2 G3 F | E2 D4 ^C2 | D8 :: d4 d2 d2 | %10
w: Au jo- li|bois en|l'om- bre d'un sou-|ci|M'y faut al-|ler pour|pas- ser ma tris-|tes- * *|se|En un jar-|
w: Rem- pli de|deuil d'un|sou- ve- nir tran-|si,|Man- ger my|faut main-|tes poi- res d'an-|gois- * *|se|De mes deux|
 c3 B A2 c2 | B2 A2 A2 ^G2 | A8 :: A4 F2 A2 | G4 E4 | F4 D2 F2 | E4 C4 | D4 _B,2 D2 | C4 A,4 |1 %19
w: din _ _ rem-|pli de noi- res|flours|Fi de li-|es- se|Et har- di-|es- se!|re- gret m'o-|pres- se|
w: yeux _ _ fe-|rai lar- mes et|plours|Las trop j'en|du- re|Le temps m'y|du- re,|Je vous as-|su- re:|
 z2 A,2 C2 D2 | E3 D E2 F2- | FE E4 D2 | E8 :|2 z2 A,2 C2 D2 || E3 D E2 F2 | E2 D4 ^C2 | D8 |] %27
w: Puis- que j'ai|per- * * du|_ _ mes a|mours.|||||
w: ||||Sou- las vous|n'a- * * vez|_ plus de|cours.|
V:2
 F4 F2 F2 | F6 A2 | G3 F E2 D2- | D2 C2 D4 | E2 E2 D2 C2 | D2 A,2 B,2 C2 | A,2 D4 D2 | %7
w: Au jo- li|bois en|l'om- bre d'un sou-||ci M'y faut al-|ler _ _ pour|pas- ser ma|
w: Rem- pli de|deuil d'un|sou- ve- nir tran-||si, Man- ger my|faut _ _ main-|tes poi- res|
 CB,A,G, A,4 | A,8 :: D4 D3 E | F2 E4 E2 | G3 F E2 E2 | C8 :: F4 C2 D2 | E4 C4 | D4 A,2 B,2 | %16
w: tris- * * * tes-|se|En un *|jar- din rem-|pli de noi- res|flours|Fi de li-|es- se|Et har- di-|
w: d'an- * * * gois-|se|De mes *|deux yeux fe-|rai lar- mes et|plours|Las trop j'en|du- re|Le temps m'y|
 C4 A,4 | _B,4 F,2 G,2 | A,4 A,4 |1 z2 C2 A,2 B,2 | C6 C2 | C4 B,4 | A,8 :|2 z2 C2 A,3 B, || %24
w: es- se!|re- gret m'o-|pres- se|Puis- que j'ai|per- du|mes a|mours.||
w: du- re,|Je vous as-|su- re:|||||Sou- las vous|
 C4 D3 C | B,2 G,2 A,4 | A,8 |] %27
w: |||
w: n'a- vez _|_ plus de|cours.|
V:3
 d4 d2 d2 | c6 A2 | d3 c B2 A2- | AG c4 B2 | c2 c2 A2 A2 | F3 E FG A2- | A2 F2 _B3 A | G2 F2 E4 | %8
w: Au jo- li|bois en|l'om- bre d'un sou-||ci M'y faut al-|ler _ _ _ _|_ pour pas- ser|ma tris- tes-|
w: Rem- pli de|deuil d'un|sou- ve- nir tran-||si, Man- ger my|faut _ _ _ _|_ main- tes poi-|res d'an- gois-|
 D8 :: z2 D2 F2 G2 | A3 B c2 A2 | d3 c B2 B2 | A8 :: c4 A2 A2 | B4 A4 | A4 F2 F2 | G4 F4 | %17
w: se|En un jar-|din _ _ rem-|pli de noi- res|flours|Fi de li-|es- se|Et har- di-|es- se!|
w: se|De mes deux|yeux _ _ fe-|rai lar- mes et|plours|Las trop j'en|du- re|Le temps m'y|du- re,|
 F4 D2 D2 | E4 F2 D2 |1 F3 G A2 F2 | G2 EF GE A2- | A2 G2 F4 | E8 :|2 F3 G A2 F2 || G2 EF GE A2 | %25
w: re- gret m'o-|pres- se Puis-|que _ _ j'ai|per- * * * * du|_ mes a|mours.|||
w: Je vous as-|su- re: Sou-|||||­las _ _ vous|n'a- * * * * vez|
 GFED E2 E2 | D8 |] %27
w: ||
w: plus _ _ _ _ de|cours.|
V:4
 D,4 D,2 D,2 | F,3 G, A,2 F,2 | G,6 D,2 | E,2 C,2 G,4 | C,2 C,2 D,2 A,,2 | D,6 C,2 | D,4 G,,4 | %7
w: Au jo- li|bois _ _ en|l'om- bre|d'un sou- *|ci M'y faut al-|ler pour|pas- ser|
w: Rem- pli de|deuil _ _ d'un|sou- ve-|nir tran- *|si, Man- ger my|faut main-|tes poi-|
 C,2 D,2 A,,4 | D,8 :: D,4 _B,,2 B,,2 | A,,6 A,2 | G,2 A,2 E,2 E,2 | A,,8 :: F,4 F,2 F,2 | %14
w: ma tris- tes-|se|En un jar-|din rem-|pli de noi- res|flours|Fi de li-|
w: res d'an- gois-|se|De mes deux|yeux fe-|rai lar- mes et|plours|Las trop j'en|
 E,4 A,,4 | D,4 D,2 D,2 | C,4 F,,4 | _B,,4 B,,2 B,,2 | A,,4 F,,2 F,2 |1 D,2 F,4 E,D, | C,6 F,,2 | %21
w: es- se|Et har- di-|es- se!|re- gret m'o-|pres- se Puis-|que j'ai _ _|per- du|
w: du- re|Le temps m'y|du- re,|Je vous as-|su- re: Sou-|||
 C,4 D,4 | A,,8 :|2 D,2 F,4 E,D, || C,3 _B,,/A,,/ G,,2 F,,2 | G,,2 _B,,2 A,,4 | D,8 |] %27
w: mes a|mours.|||||
w: ||­las vous _ _|n'a- * * * vez|plus _ de|cours.|

